Origami/16x16/apps/vmpk.svg

<svg width="16" height="16" version="1" xmlns="http://www.w3.org/2000/svg">
 <path d="m16 14.2779v-11.555824c0-0.3998939-0.356741-0.7219889-0.8-0.7219889h-14.4c-0.4432 0-0.8 0.322095-0.8 0.7221889v11.555823c0 0.399994 0.3568 0.721988 0.8 0.721988h14.4c0.443259 0 0.8-0.321995 0.8-0.721988z" style="fill:#4f4f4f"/>
 <rect x="1" y="3" width="2" height="11" ry=".524" style="fill:#d8d8d8"/>
 <rect x="3" y="3" width="2" height="11" ry=".524" style="fill:#f0f0f0"/>
 <rect x="5" y="3" width="2" height="11" ry=".524" style="fill:#d8d8d8"/>
 <rect x="7" y="3" width="2" height="11" ry=".524" style="fill:#f0f0f0"/>
 <rect x="9" y="3" width="2" height="11" ry=".524" style="fill:#d8d8d8"/>
 <rect x="11" y="3" width="2" height="11" ry=".524" style="fill:#f0f0f0"/>
 <rect x="13" y="3" width="2" height="11" ry=".524" style="fill:#d8d8d8"/>
 <path d="M 2.24805,2.0001077 C 2.11095,2.0001077 2,2.1717149 2,2.3849989 V 8.6149811 C 2,8.8282113 2.11095,8.99998 2.24805,8.99998 h 0.5049 C 2.89005,8.99998 3,8.8282113 3,8.6149811 V 2.3849989 C 3,2.1716072 2.89005,2 2.75295,2 h -0.5049 z" style="fill:#4f4f4f"/>
 <path d="m4.24805 2c-0.1371 0-0.24805 0.1716072-0.24805 0.3848912v6.2299822c0 0.2132302 0.11095 0.3849989 0.24805 0.3849989h0.5049c0.1371 0 0.24705-0.1717687 0.24705-0.3849989v-6.2299822c0-0.2133917-0.10995-0.3849989-0.24705-0.3849989h-0.5049z" style="fill:#4f4f4f"/>
 <path d="m8.24805 2c-0.1371 0-0.24805 0.1716072-0.24805 0.3848912v6.2299822c0 0.2132302 0.11095 0.3849989 0.24805 0.3849989h0.5049c0.1371 0 0.24705-0.1717687 0.24705-0.3849989v-6.2299822c0-0.2133917-0.10995-0.3849989-0.24705-0.3849989h-0.5049z" style="fill:#4f4f4f"/>
 <path d="m10.24805 1.9998923c-0.1371 0-0.24805 0.1716072-0.24805 0.3848912v6.2299822c0 0.2132302 0.11095 0.3849989 0.24805 0.3849989h0.5049c0.1371 0 0.24705-0.1717687 0.24705-0.3849989v-6.2299822c0-0.2133917-0.10995-0.3849989-0.24705-0.3849989h-0.5049z" style="fill:#4f4f4f"/>
 <path d="m12.24805 2c-0.1371 0-0.24805 0.1716072-0.24805 0.3848912v6.2299822c0 0.2132302 0.11095 0.3849989 0.24805 0.3849989h0.5049c0.1371 0 0.24705-0.1717687 0.24705-0.3849989v-6.2299822c0-0.2133917-0.10995-0.3849989-0.24705-0.3849989h-0.5049z" style="fill:#4f4f4f"/>
</svg>

<svg xmlns="http://www.w3.org/2000/svg" width="16" height="16" version="1">
 <path style="fill:#4f4f4f" d="M 16,14.2779 V 2.7220759 C 16,2.322182 15.643259,2.000087 15.2,2.000087 H 0.8 C 0.3568,2.000087 0,2.322182 0,2.7222759 V 14.278099 c 0,0.399994 0.3568,0.721988 0.8,0.721988 h 14.4 c 0.443259,0 0.8,-0.321995 0.8,-0.721988 z"/>
 <rect style="fill:#d8d8d8" width="2" height="11" x="1" y="3" ry=".524"/>
 <rect style="fill:#f0f0f0" width="2" height="11" x="3" y="3" ry=".524"/>
 <rect style="fill:#d8d8d8" width="2" height="11" x="5" y="3" ry=".524"/>
 <rect style="fill:#f0f0f0" width="2" height="11" x="7" y="3" ry=".524"/>
 <rect style="fill:#d8d8d8" width="2" height="11" x="9" y="3" ry=".524"/>
 <rect style="fill:#f0f0f0" width="2" height="11" x="11" y="3" ry=".524"/>
 <rect style="fill:#d8d8d8" width="2" height="11" x="13" y="3" ry=".524"/>
 <path style="fill:#4f4f4f" d="M 2.24805,2.0001077 C 2.11095,2.0001077 2,2.1717149 2,2.3849989 V 8.6149811 C 2,8.8282113 2.11095,8.99998 2.24805,8.99998 h 0.5049 C 2.89005,8.99998 3,8.8282113 3,8.6149811 V 2.3849989 C 3,2.1716072 2.89005,2 2.75295,2 h -0.5049 z"/>
 <path style="fill:#4f4f4f" d="M 4.24805,2 C 4.11095,2 4,2.1716072 4,2.3848912 v 6.2299822 c 0,0.2132302 0.11095,0.3849989 0.24805,0.3849989 h 0.5049 C 4.89005,8.9998723 5,8.8281036 5,8.6148734 V 2.3848912 C 5,2.1714995 4.89005,1.9998923 4.75295,1.9998923 h -0.5049 z"/>
 <path style="fill:#4f4f4f" d="M 8.24805,2 C 8.11095,2 8,2.1716072 8,2.3848912 v 6.2299822 c 0,0.2132302 0.11095,0.3849989 0.24805,0.3849989 h 0.5049 C 8.89005,8.9998723 9,8.8281036 9,8.6148734 V 2.3848912 C 9,2.1714995 8.89005,1.9998923 8.75295,1.9998923 h -0.5049 z"/>
 <path style="fill:#4f4f4f" d="M 10.24805,1.9998923 C 10.11095,1.9998923 10,2.1714995 10,2.3847835 v 6.2299822 c 0,0.2132302 0.11095,0.3849989 0.24805,0.3849989 h 0.5049 C 10.89005,8.9997646 11,8.8279959 11,8.6147657 V 2.3847835 C 11,2.1713918 10.89005,1.9997846 10.75295,1.9997846 h -0.5049 z"/>
 <path style="fill:#4f4f4f" d="M 12.24805,2 C 12.11095,2 12,2.1716072 12,2.3848912 v 6.2299822 c 0,0.2132302 0.11095,0.3849989 0.24805,0.3849989 h 0.5049 C 12.89005,8.9998723 13,8.8281036 13,8.6148734 V 2.3848912 C 13,2.1714995 12.89005,1.9998923 12.75295,1.9998923 h -0.5049 z"/>
</svg>
